optimized/outline/newspaper.svg

<svg xmlns="http://www.w3.org/2000/svg" fill="none" viewBox="0 0 24 24" stroke-width="2" stroke="currentColor" aria-hidden="true">
  <path stroke-linecap="round" stroke-linejoin="round" d="M19 20H5C3.89543 20 3 19.1046 3 18L3 6C3 4.89543 3.89543 4 5 4L15 4C16.1046 4 17 4.89543 17 6V7M19 20C17.8954 20 17 19.1046 17 18L17 7M19 20C20.1046 20 21 19.1046 21 18V9C21 7.89543 20.1046 7 19 7L17 7M13 4L9 4M7 16H13M7 8H13V12H7V8Z"/>
</svg>

<svg xmlns="http://www.w3.org/2000/svg" fill="none" viewBox="0 0 24 24" stroke-width="2" stroke="currentColor" aria-hidden="true">
  <path stroke-linecap="round" stroke-linejoin="round" d="M19 20H5a2 2 0 01-2-2V6a2 2 0 012-2h10a2 2 0 012 2v1m2 13a2 2 0 01-2-2V7m2 13a2 2 0 002-2V9a2 2 0 00-2-2h-2m-4-3H9M7 16h6M7 8h6v4H7V8z"/>
</svg>
